X:1
T:Megrakják a tüzet
C:Hungarian folk song
Z:Public Domain
L:1/8
M:4/4
K:C
V:1 treble nm="Voice"
%%MIDI program 52
V:1
 AAEE A A3 | GEED E E3 | DDA,A, D D3 | CA,A,G, A, A,3 |] %4
w: Meg- rak- ják a tü- zet,|még- is el- a- lu- szik,|Nincs az a sze- re- lem,|a- mi el nem mú- lik.-|

